icons/battery-1B.svg

<svg width="24" height="24" viewBox="0 0 24 24" fill="none" xmlns="http://www.w3.org/2000/svg">
<path d="M15.9985 17.05H8.09854C5.29854 17.05 2.99854 14.75 2.99854 11.95C3.09854 9.14995 5.29854 6.94995 8.09854 6.94995H15.8985C18.6985 6.94995 20.9985 9.24995 20.9985 12.05C21.0985 14.75 18.7985 17.05 15.9985 17.05Z" fill="black"/>
<path fill-rule="evenodd" clip-rule="evenodd" d="M3.74856 11.9633C3.75586 14.3431 5.7172 16.3 8.09854 16.3H15.9985C18.4003 16.3 20.3323 14.3265 20.249 12.0777L20.2485 12.0638V12.05C20.2485 9.66416 18.2843 7.69995 15.8985 7.69995H8.09854C5.72189 7.69995 3.84119 9.55804 3.74856 11.9633ZM2.24901 11.9232C2.36288 8.73494 4.87961 6.19995 8.09854 6.19995H15.8985C19.1081 6.19995 21.741 8.82816 21.7485 12.0361C21.8569 15.1811 19.192 17.8 15.9985 17.8H8.09854C4.88432 17.8 2.24854 15.1642 2.24854 11.95V11.9366L2.24901 11.9232Z" fill="black"/>
<path fill-rule="evenodd" clip-rule="evenodd" d="M6.99854 9.19995C7.41275 9.19995 7.74854 9.53574 7.74854 9.94995V13.95C7.74854 14.3642 7.41275 14.7 6.99854 14.7C6.58432 14.7 6.24854 14.3642 6.24854 13.95V9.94995C6.24854 9.53574 6.58432 9.19995 6.99854 9.19995Z" fill="white"/>
</svg>

<svg xmlns="http://www.w3.org/2000/svg" fill="none" viewBox="0 0 24 24">
  <path fill="#000" d="M15.998 17.05h-7.9c-2.8 0-5.1-2.3-5.1-5.1.1-2.8 2.3-5 5.1-5h7.8c2.8 0 5.1 2.3 5.1 5.1.1 2.7-2.2 5-5 5Z"/>
  <path fill="#000" fill-rule="evenodd" d="M3.749 11.963c.007 2.38 1.968 4.337 4.35 4.337h7.9c2.401 0 4.333-1.974 4.25-4.222v-.028c0-2.386-1.965-4.35-4.35-4.35h-7.8c-2.377 0-4.258 1.858-4.35 4.263Zm-1.5-.04C2.363 8.735 4.879 6.2 8.099 6.2h7.8c3.21 0 5.842 2.628 5.85 5.836.108 3.145-2.557 5.764-5.75 5.764h-7.9c-3.215 0-5.85-2.636-5.85-5.85v-.027Z" clip-rule="evenodd"/>
  <path fill="#fff" fill-rule="evenodd" d="M6.999 9.2a.75.75 0 0 1 .75.75v4a.75.75 0 0 1-1.5 0v-4a.75.75 0 0 1 .75-.75Z" clip-rule="evenodd"/>
</svg>
